X: 674
T: Jac-O-Diamonds
C:as played by Texas Shorty
B: jims roots
M:2/4
L:1/8
Q: 1/4=100
K:A
V:1 
e2f2g2 |:[P:A Part] "A"a2 ec AecA | EGBd ecec | "E"dB B2 Bc (3B/c/B/A | GABc defg |
"A"a2 ec AecA | A,CEA EAec | "E"Bcde fgaf | [1 ecBG "A"A2ag :|[2 ecBG "A"A4 ||
|: "A"{cd}e2-ef ec{Bc}BA | "D"dced fded | "A"ceef ecAc | "E"{Bc}BAGF EDCE |
"A"A,2AG ABce | "D"BFBc defa | "A"ecae "E"gbaf |[1 edcB "A"A2 A,2 :|[2 edcB "A"A2 aa||
|:"A"[E4C] [E4A] | "D"[F4D][F4A] | "A"[CE][E3(A] A)FEC |  "E"[E4B,] DCB,C |
"A"A,CEG ABcA | "D"BFBc defa | "A"ecae "E"gbaf | edcB "A"A2 A,2 ||
AB | "A"ce2f ecAc | "D"dcde faaf | "A"ecef ecAc | "E"B4 dcBc |
"A"AcBc ABce | "D"BFBc defa | "A"ecae "E"gbaf | edcB "A"A2a2 ||
% abcbook-tune_id 6298c25d838d6eb51fee5c15


% abcbook-boost 0
% abcbook-tablature 
% abcbook-transpose 
% abcbook-lastupdated 1654178399049
% abcbook-soundfonts 
% abcbook-repeats 1


